images/16759165.svg

<?xml version="1.0" encoding="UTF-8"?>
<svg xmlns="http://www.w3.org/2000/svg" xmlns:xlink="http://www.w3.org/1999/xlink" width="300pt" height="300pt" viewBox="0 0 300 300" version="1.1">
<defs>
<g>
<symbol overflow="visible" id="glyph0-0">
<path style="stroke:none;" d="M 0.453125 1.59375 L 0.453125 -6.34375 L 4.953125 -6.34375 L 4.953125 1.59375 Z M 0.953125 1.09375 L 4.453125 1.09375 L 4.453125 -5.84375 L 0.953125 -5.84375 Z M 0.953125 1.09375 "/>
</symbol>
<symbol overflow="visible" id="glyph0-1">
<path style="stroke:none;" d="M 0.890625 -6.5625 L 2.078125 -6.5625 L 4.984375 -1.078125 L 4.984375 -6.5625 L 5.84375 -6.5625 L 5.84375 0 L 4.65625 0 L 1.75 -5.484375 L 1.75 0 L 0.890625 0 Z M 0.890625 -6.5625 "/>
</symbol>
<symbol overflow="visible" id="glyph0-2">
<path style="stroke:none;" d="M 0.890625 -6.5625 L 1.765625 -6.5625 L 1.765625 -3.875 L 5 -3.875 L 5 -6.5625 L 5.890625 -6.5625 L 5.890625 0 L 5 0 L 5 -3.125 L 1.765625 -3.125 L 1.765625 0 L 0.890625 0 Z M 0.890625 -6.5625 "/>
</symbol>
<symbol overflow="visible" id="glyph0-3">
<path style="stroke:none;" d="M 5.796875 -6.0625 L 5.796875 -5.125 C 5.492188 -5.394531 5.171875 -5.597656 4.828125 -5.734375 C 4.492188 -5.878906 4.140625 -5.953125 3.765625 -5.953125 C 3.015625 -5.953125 2.4375 -5.722656 2.03125 -5.265625 C 1.632812 -4.804688 1.4375 -4.144531 1.4375 -3.28125 C 1.4375 -2.414062 1.632812 -1.753906 2.03125 -1.296875 C 2.4375 -0.835938 3.015625 -0.609375 3.765625 -0.609375 C 4.140625 -0.609375 4.492188 -0.675781 4.828125 -0.8125 C 5.171875 -0.945312 5.492188 -1.15625 5.796875 -1.4375 L 5.796875 -0.5 C 5.484375 -0.289062 5.15625 -0.132812 4.8125 -0.03125 C 4.46875 0.0703125 4.097656 0.125 3.703125 0.125 C 2.710938 0.125 1.929688 -0.175781 1.359375 -0.78125 C 0.785156 -1.394531 0.5 -2.226562 0.5 -3.28125 C 0.5 -4.332031 0.785156 -5.160156 1.359375 -5.765625 C 1.929688 -6.378906 2.710938 -6.6875 3.703125 -6.6875 C 4.097656 -6.6875 4.46875 -6.632812 4.8125 -6.53125 C 5.164062 -6.425781 5.492188 -6.269531 5.796875 -6.0625 Z M 5.796875 -6.0625 "/>
</symbol>
<symbol overflow="visible" id="glyph0-4">
<path style="stroke:none;" d="M 0.84375 -6.84375 L 1.65625 -6.84375 L 1.65625 0 L 0.84375 0 Z M 0.84375 -6.84375 "/>
</symbol>
</g>
</defs>
<g id="surface36697">
<rect x="0" y="0" width="300" height="300" style="fill:rgb(100%,100%,100%);fill-opacity:1;stroke:none;"/>
<path style="fill:none;stroke-width:1.2;stroke-linecap:butt;stroke-linejoin:miter;stroke:rgb(0%,0%,0%);stroke-opacity:1;stroke-miterlimit:10;" d="M 129.746094 214.339844 L 106.875 204.613281 "/>
<path style="fill:none;stroke-width:1.2;stroke-linecap:butt;stroke-linejoin:miter;stroke:rgb(0%,0%,100%);stroke-opacity:1;stroke-miterlimit:10;" d="M 149.601562 199.394531 L 139.675781 206.867188 "/>
<path style="fill:none;stroke-width:1.2;stroke-linecap:butt;stroke-linejoin:miter;stroke:rgb(0%,0%,0%);stroke-opacity:1;stroke-miterlimit:10;" d="M 139.675781 206.867188 L 129.746094 214.339844 "/>
<path style="fill:none;stroke-width:1.2;stroke-linecap:butt;stroke-linejoin:miter;stroke:rgb(0%,0%,0%);stroke-opacity:1;stroke-miterlimit:10;" d="M 106.875 204.613281 L 105.367188 192.28125 "/>
<path style="fill:none;stroke-width:1.2;stroke-linecap:butt;stroke-linejoin:miter;stroke:rgb(0%,0%,100%);stroke-opacity:1;stroke-miterlimit:10;" d="M 105.367188 192.28125 L 103.863281 179.945312 "/>
<path style="fill:none;stroke-width:1.2;stroke-linecap:butt;stroke-linejoin:miter;stroke:rgb(0%,0%,100%);stroke-opacity:1;stroke-miterlimit:10;" d="M 103.863281 179.945312 L 113.789062 172.472656 "/>
<path style="fill:none;stroke-width:1.2;stroke-linecap:butt;stroke-linejoin:miter;stroke:rgb(0%,0%,0%);stroke-opacity:1;stroke-miterlimit:10;" d="M 113.789062 172.472656 L 123.71875 165.003906 "/>
<path style="fill:none;stroke-width:1.2;stroke-linecap:butt;stroke-linejoin:miter;stroke:rgb(0%,0%,100%);stroke-opacity:1;stroke-miterlimit:10;" d="M 103.863281 179.945312 L 92.425781 175.085938 "/>
<path style="fill:none;stroke-width:1.2;stroke-linecap:butt;stroke-linejoin:miter;stroke:rgb(0%,0%,0%);stroke-opacity:1;stroke-miterlimit:10;" d="M 92.425781 175.085938 L 80.992188 170.222656 "/>
<path style=" stroke:none;fill-rule:nonzero;fill:rgb(100%,100%,100%);fill-opacity:1;" d="M 100.863281 174.445312 L 107.863281 174.445312 L 107.863281 185.445312 L 100.863281 185.445312 Z M 100.863281 174.445312 "/>
<g style="fill:rgb(0%,0%,100%);fill-opacity:1;">
  <use xlink:href="#glyph0-1" x="100.863281" y="183.108398"/>
</g>
<path style="fill:none;stroke-width:1.2;stroke-linecap:butt;stroke-linejoin:miter;stroke:rgb(0%,0%,0%);stroke-opacity:1;stroke-miterlimit:10;" d="M 123.71875 165.003906 L 146.589844 174.726562 "/>
<path style="fill:none;stroke-width:1.2;stroke-linecap:butt;stroke-linejoin:miter;stroke:rgb(0%,0%,0%);stroke-opacity:1;stroke-miterlimit:10;" d="M 146.589844 174.726562 L 148.09375 187.058594 "/>
<path style="fill:none;stroke-width:1.2;stroke-linecap:butt;stroke-linejoin:miter;stroke:rgb(0%,0%,100%);stroke-opacity:1;stroke-miterlimit:10;" d="M 148.09375 187.058594 L 149.601562 199.394531 "/>
<path style="fill:none;stroke-width:1.2;stroke-linecap:butt;stroke-linejoin:miter;stroke:rgb(0%,0%,100%);stroke-opacity:1;stroke-miterlimit:10;" d="M 149.601562 199.394531 L 161.039062 204.257812 "/>
<path style="fill:none;stroke-width:1.2;stroke-linecap:butt;stroke-linejoin:miter;stroke:rgb(0%,0%,0%);stroke-opacity:1;stroke-miterlimit:10;" d="M 161.039062 204.257812 L 172.472656 209.117188 "/>
<path style=" stroke:none;fill-rule:nonzero;fill:rgb(100%,100%,100%);fill-opacity:1;" d="M 146.601562 193.894531 L 153.601562 193.894531 L 153.601562 204.894531 L 146.601562 204.894531 Z M 146.601562 193.894531 "/>
<g style="fill:rgb(0%,0%,100%);fill-opacity:1;">
  <use xlink:href="#glyph0-1" x="146.601562" y="202.557617"/>
</g>
<path style="fill:none;stroke-width:1.2;stroke-linecap:butt;stroke-linejoin:miter;stroke:rgb(0%,0%,0%);stroke-opacity:1;stroke-miterlimit:10;" d="M 172.472656 209.117188 L 192.328125 194.175781 "/>
<path style="fill:none;stroke-width:1.2;stroke-linecap:butt;stroke-linejoin:miter;stroke:rgb(0%,0%,0%);stroke-opacity:1;stroke-miterlimit:10;" d="M 192.328125 194.175781 L 204.210938 197.816406 "/>
<path style="fill:none;stroke-width:1.2;stroke-linecap:butt;stroke-linejoin:miter;stroke:rgb(0%,0%,100%);stroke-opacity:1;stroke-miterlimit:10;" d="M 204.210938 197.816406 L 216.089844 201.453125 "/>
<path style="fill:none;stroke-width:1.2;stroke-linecap:butt;stroke-linejoin:miter;stroke:rgb(0%,0%,0%);stroke-opacity:1;stroke-miterlimit:10;" d="M 196.417969 189.3125 L 205.921875 192.222656 "/>
<path style="fill:none;stroke-width:1.2;stroke-linecap:butt;stroke-linejoin:miter;stroke:rgb(0%,0%,100%);stroke-opacity:1;stroke-miterlimit:10;" d="M 205.921875 192.222656 L 215.425781 195.136719 "/>
<path style="fill:none;stroke-width:1.2;stroke-linecap:butt;stroke-linejoin:miter;stroke:rgb(0%,0%,100%);stroke-opacity:1;stroke-miterlimit:10;" d="M 191.910156 169.324219 L 192.121094 181.75 "/>
<path style="fill:none;stroke-width:1.2;stroke-linecap:butt;stroke-linejoin:miter;stroke:rgb(0%,0%,0%);stroke-opacity:1;stroke-miterlimit:10;" d="M 192.121094 181.75 L 192.328125 194.175781 "/>
<path style="fill:none;stroke-width:1.2;stroke-linecap:butt;stroke-linejoin:miter;stroke:rgb(0%,0%,100%);stroke-opacity:1;stroke-miterlimit:10;" d="M 216.089844 201.453125 L 223.222656 191.28125 "/>
<path style="fill:none;stroke-width:1.2;stroke-linecap:butt;stroke-linejoin:miter;stroke:rgb(0%,0%,0%);stroke-opacity:1;stroke-miterlimit:10;" d="M 223.222656 191.28125 L 230.359375 181.105469 "/>
<path style=" stroke:none;fill-rule:nonzero;fill:rgb(100%,100%,100%);fill-opacity:1;" d="M 213.089844 195.953125 L 220.089844 195.953125 L 220.089844 206.953125 L 213.089844 206.953125 Z M 213.089844 195.953125 "/>
<g style="fill:rgb(0%,0%,100%);fill-opacity:1;">
  <use xlink:href="#glyph0-1" x="213.089844" y="204.616211"/>
</g>
<path style="fill:none;stroke-width:1.2;stroke-linecap:butt;stroke-linejoin:miter;stroke:rgb(0%,0%,0%);stroke-opacity:1;stroke-miterlimit:10;" d="M 230.359375 181.105469 L 255.027344 178.089844 "/>
<path style="fill:none;stroke-width:1.2;stroke-linecap:butt;stroke-linejoin:miter;stroke:rgb(0%,0%,0%);stroke-opacity:1;stroke-miterlimit:10;" d="M 232.113281 175 L 251.851562 172.589844 "/>
<path style="fill:none;stroke-width:1.2;stroke-linecap:butt;stroke-linejoin:miter;stroke:rgb(0%,0%,0%);stroke-opacity:1;stroke-miterlimit:10;" d="M 215.414062 161.25 L 230.359375 181.105469 "/>
<path style="fill:none;stroke-width:1.2;stroke-linecap:butt;stroke-linejoin:miter;stroke:rgb(0%,0%,0%);stroke-opacity:1;stroke-miterlimit:10;" d="M 255.027344 178.089844 L 264.75 155.222656 "/>
<path style="fill:none;stroke-width:1.2;stroke-linecap:butt;stroke-linejoin:miter;stroke:rgb(0%,0%,0%);stroke-opacity:1;stroke-miterlimit:10;" d="M 264.75 155.222656 L 249.804688 135.363281 "/>
<path style="fill:none;stroke-width:1.2;stroke-linecap:butt;stroke-linejoin:miter;stroke:rgb(0%,0%,0%);stroke-opacity:1;stroke-miterlimit:10;" d="M 258.582031 156.75 L 246.628906 140.867188 "/>
<path style="fill:none;stroke-width:1.2;stroke-linecap:butt;stroke-linejoin:miter;stroke:rgb(0%,0%,0%);stroke-opacity:1;stroke-miterlimit:10;" d="M 249.804688 135.363281 L 225.136719 138.378906 "/>
<path style="fill:none;stroke-width:1.2;stroke-linecap:butt;stroke-linejoin:miter;stroke:rgb(0%,0%,0%);stroke-opacity:1;stroke-miterlimit:10;" d="M 225.136719 138.378906 L 215.414062 161.25 "/>
<path style="fill:none;stroke-width:1.2;stroke-linecap:butt;stroke-linejoin:miter;stroke:rgb(0%,0%,0%);stroke-opacity:1;stroke-miterlimit:10;" d="M 229.546875 142.953125 L 221.765625 161.25 "/>
<path style="fill:none;stroke-width:1.2;stroke-linecap:butt;stroke-linejoin:miter;stroke:rgb(0%,0%,0%);stroke-opacity:1;stroke-miterlimit:10;" d="M 215.414062 161.25 L 203.660156 165.289062 "/>
<path style="fill:none;stroke-width:1.2;stroke-linecap:butt;stroke-linejoin:miter;stroke:rgb(0%,0%,100%);stroke-opacity:1;stroke-miterlimit:10;" d="M 203.660156 165.289062 L 191.910156 169.324219 "/>
<path style=" stroke:none;fill-rule:nonzero;fill:rgb(100%,100%,100%);fill-opacity:1;" d="M 184.910156 163.824219 L 198.910156 163.824219 L 198.910156 174.824219 L 184.910156 174.824219 Z M 184.910156 163.824219 "/>
<g style="fill:rgb(0%,0%,100%);fill-opacity:1;">
  <use xlink:href="#glyph0-1" x="184.910156" y="172.487305"/>
  <use xlink:href="#glyph0-2" x="191.887695" y="172.487305"/>
</g>
<path style="fill:none;stroke-width:1.2;stroke-linecap:butt;stroke-linejoin:miter;stroke:rgb(0%,0%,0%);stroke-opacity:1;stroke-miterlimit:10;" d="M 80.992188 170.222656 L 77.976562 145.554688 "/>
<path style="fill:none;stroke-width:1.2;stroke-linecap:butt;stroke-linejoin:miter;stroke:rgb(0%,0%,0%);stroke-opacity:1;stroke-miterlimit:10;" d="M 74.886719 168.464844 L 72.472656 148.730469 "/>
<path style="fill:none;stroke-width:1.2;stroke-linecap:butt;stroke-linejoin:miter;stroke:rgb(0%,0%,100%);stroke-opacity:1;stroke-miterlimit:10;" d="M 61.132812 185.167969 L 71.0625 177.695312 "/>
<path style="fill:none;stroke-width:1.2;stroke-linecap:butt;stroke-linejoin:miter;stroke:rgb(0%,0%,0%);stroke-opacity:1;stroke-miterlimit:10;" d="M 71.0625 177.695312 L 80.992188 170.222656 "/>
<path style="fill:none;stroke-width:1.2;stroke-linecap:butt;stroke-linejoin:miter;stroke:rgb(0%,0%,0%);stroke-opacity:1;stroke-miterlimit:10;" d="M 77.976562 145.554688 L 55.105469 135.828125 "/>
<path style="fill:none;stroke-width:1.2;stroke-linecap:butt;stroke-linejoin:miter;stroke:rgb(0%,0%,0%);stroke-opacity:1;stroke-miterlimit:10;" d="M 55.105469 135.828125 L 35.25 150.773438 "/>
<path style="fill:none;stroke-width:1.2;stroke-linecap:butt;stroke-linejoin:miter;stroke:rgb(0%,0%,0%);stroke-opacity:1;stroke-miterlimit:10;" d="M 56.636719 141.996094 L 40.753906 153.953125 "/>
<path style="fill:none;stroke-width:1.2;stroke-linecap:butt;stroke-linejoin:miter;stroke:rgb(0%,0%,0%);stroke-opacity:1;stroke-miterlimit:10;" d="M 35.25 150.773438 L 38.265625 175.441406 "/>
<path style="fill:none;stroke-width:1.2;stroke-linecap:butt;stroke-linejoin:miter;stroke:rgb(0%,0%,0%);stroke-opacity:1;stroke-miterlimit:10;" d="M 38.265625 175.441406 L 49.699219 180.304688 "/>
<path style="fill:none;stroke-width:1.2;stroke-linecap:butt;stroke-linejoin:miter;stroke:rgb(0%,0%,100%);stroke-opacity:1;stroke-miterlimit:10;" d="M 49.699219 180.304688 L 61.132812 185.167969 "/>
<path style="fill:none;stroke-width:1.2;stroke-linecap:butt;stroke-linejoin:miter;stroke:rgb(0%,0%,0%);stroke-opacity:1;stroke-miterlimit:10;" d="M 42.839844 171.035156 L 51.988281 174.921875 "/>
<path style="fill:none;stroke-width:1.2;stroke-linecap:butt;stroke-linejoin:miter;stroke:rgb(0%,0%,100%);stroke-opacity:1;stroke-miterlimit:10;" d="M 51.988281 174.921875 L 61.136719 178.8125 "/>
<path style=" stroke:none;fill-rule:nonzero;fill:rgb(100%,100%,100%);fill-opacity:1;" d="M 58.132812 179.667969 L 65.132812 179.667969 L 65.132812 190.667969 L 58.132812 190.667969 Z M 58.132812 179.667969 "/>
<g style="fill:rgb(0%,0%,100%);fill-opacity:1;">
  <use xlink:href="#glyph0-1" x="58.132812" y="188.331055"/>
</g>
<path style=" stroke:none;fill-rule:nonzero;fill:rgb(100%,100%,100%);fill-opacity:1;" d="M 143.019531 113.296875 L 160.019531 113.296875 L 160.019531 124.296875 L 143.019531 124.296875 Z M 143.019531 113.296875 "/>
<g style="fill:rgb(0%,80%,0%);fill-opacity:1;">
  <use xlink:href="#glyph0-3" x="143.019531" y="121.959961"/>
  <use xlink:href="#glyph0-4" x="149.533203" y="121.959961"/>
  <use xlink:href="#glyph0-2" x="152.125" y="121.959961"/>
</g>
<path style=" stroke:none;fill-rule:nonzero;fill:rgb(100%,100%,100%);fill-opacity:1;" d="M 143.019531 96.730469 L 160.019531 96.730469 L 160.019531 107.730469 L 143.019531 107.730469 Z M 143.019531 96.730469 "/>
<g style="fill:rgb(0%,80%,0%);fill-opacity:1;">
  <use xlink:href="#glyph0-3" x="143.019531" y="105.393555"/>
  <use xlink:href="#glyph0-4" x="149.533203" y="105.393555"/>
  <use xlink:href="#glyph0-2" x="152.125" y="105.393555"/>
</g>
<path style=" stroke:none;fill-rule:nonzero;fill:rgb(100%,100%,100%);fill-opacity:1;" d="M 143.019531 80.160156 L 160.019531 80.160156 L 160.019531 91.160156 L 143.019531 91.160156 Z M 143.019531 80.160156 "/>
<g style="fill:rgb(0%,80%,0%);fill-opacity:1;">
  <use xlink:href="#glyph0-3" x="143.019531" y="88.823242"/>
  <use xlink:href="#glyph0-4" x="149.533203" y="88.823242"/>
  <use xlink:href="#glyph0-2" x="152.125" y="88.823242"/>
</g>
</g>
</svg>

<svg xmlns="http://www.w3.org/2000/svg" xmlns:xlink="http://www.w3.org/1999/xlink" width="300pt" height="300pt" viewBox="0 0 300 300"><defs><symbol overflow="visible"><path d="M.453 1.594v-7.938h4.5v7.938zm.5-.5h3.5v-6.938h-3.5zm0 0"/></symbol><symbol overflow="visible" id="a"><path d="M.89-6.563H2.08l2.906 5.485v-5.484h.86V0H4.656L1.75-5.484V0H.89zm0 0"/></symbol><symbol overflow="visible" id="b"><path d="M.89-6.563h.876v2.688H5v-2.688h.89V0H5v-3.125H1.766V0H.89zm0 0"/></symbol><symbol overflow="visible" id="c"><path d="M5.797-6.063v.938c-.305-.27-.625-.473-.97-.61-.335-.144-.686-.218-1.06-.218-.75 0-1.33.23-1.736.687-.397.46-.592 1.12-.592 1.985 0 .866.195 1.526.593 1.983.408.46.986.688 1.736.688.375 0 .726-.066 1.062-.203.344-.132.664-.343.97-.625V-.5c-.314.21-.642.367-.986.47-.343.1-.714.155-1.11.155-.99 0-1.772-.3-2.343-.906C.784-1.396.5-2.228.5-3.28c0-1.052.285-1.88.86-2.486.57-.613 1.35-.92 2.343-.92.395-.002.766.053 1.11.155.35.104.68.26.984.468zm0 0"/></symbol><symbol overflow="visible" id="d"><path d="M.844-6.844h.812V0H.844zm0 0"/></symbol></defs><g><path fill="#fff" d="M0 0h300v300H0z"/><path d="M129.746 214.34l-22.87-9.727" stroke-width="1.2" stroke="#000" stroke-miterlimit="10" fill="none"/><path d="M149.602 199.395l-9.926 7.472" stroke-width="1.2" stroke="#00f" stroke-miterlimit="10" fill="none"/><path d="M139.676 206.867l-9.93 7.473M106.875 204.613l-1.508-12.332" stroke-width="1.2" stroke="#000" stroke-miterlimit="10" fill="none"/><path d="M105.367 192.28l-1.504-12.335M103.863 179.945l9.926-7.472" stroke-width="1.2" stroke="#00f" stroke-miterlimit="10" fill="none"/><path d="M113.79 172.473l9.93-7.47" stroke-width="1.2" stroke="#000" stroke-miterlimit="10" fill="none"/><path d="M103.863 179.945l-11.437-4.86" stroke-width="1.2" stroke="#00f" stroke-miterlimit="10" fill="none"/><path d="M92.426 175.086l-11.434-4.863" stroke-width="1.2" stroke="#000" stroke-miterlimit="10" fill="none"/><path d="M100.863 174.445h7v11h-7zm0 0" fill="#fff"/><use xlink:href="#a" x="100.863" y="183.108" fill="#00f"/><path d="M123.72 165.004l22.87 9.723M146.59 174.727l1.504 12.332" stroke-width="1.2" stroke="#000" stroke-miterlimit="10" fill="none"/><path d="M148.094 187.06l1.508 12.335M149.602 199.395l11.437 4.863" stroke-width="1.2" stroke="#00f" stroke-miterlimit="10" fill="none"/><path d="M161.04 204.258l11.433 4.86" stroke-width="1.2" stroke="#000" stroke-miterlimit="10" fill="none"/><path d="M146.602 193.895h7v11h-7zm0 0" fill="#fff"/><use xlink:href="#a" x="146.602" y="202.558" fill="#00f"/><path d="M172.473 209.117l19.855-14.94M192.328 194.176l11.883 3.64" stroke-width="1.2" stroke="#000" stroke-miterlimit="10" fill="none"/><path d="M204.21 197.816l11.88 3.637" stroke-width="1.2" stroke="#00f" stroke-miterlimit="10" fill="none"/><path d="M196.418 189.313l9.504 2.91" stroke-width="1.2" stroke="#000" stroke-miterlimit="10" fill="none"/><path d="M205.922 192.223l9.504 2.914M191.91 169.324l.21 12.426" stroke-width="1.2" stroke="#00f" stroke-miterlimit="10" fill="none"/><path d="M192.12 181.75l.208 12.426" stroke-width="1.2" stroke="#000" stroke-miterlimit="10" fill="none"/><path d="M216.09 201.453l7.133-10.172" stroke-width="1.2" stroke="#00f" stroke-miterlimit="10" fill="none"/><path d="M223.223 191.28l7.136-10.175" stroke-width="1.2" stroke="#000" stroke-miterlimit="10" fill="none"/><path d="M213.09 195.953h7v11h-7zm0 0" fill="#fff"/><use xlink:href="#a" x="213.09" y="204.616" fill="#00f"/><path d="M230.36 181.105l24.667-3.015M232.113 175l19.74-2.41M215.414 161.25l14.945 19.855M255.027 178.09l9.723-22.867M264.75 155.223l-14.945-19.86M258.582 156.75l-11.953-15.883M249.805 135.363l-24.668 3.016M225.137 138.38l-9.723 22.87M229.547 142.953l-7.78 18.297M215.414 161.25l-11.754 4.04" stroke-width="1.2" stroke="#000" stroke-miterlimit="10" fill="none"/><path d="M203.66 165.29l-11.75 4.034" stroke-width="1.2" stroke="#00f" stroke-miterlimit="10" fill="none"/><path d="M184.91 163.824h14v11h-14zm0 0" fill="#fff"/><g fill="#00f"><use xlink:href="#a" x="184.91" y="172.487"/><use xlink:href="#b" x="191.888" y="172.487"/></g><path d="M80.992 170.223l-3.015-24.668M74.887 168.465l-2.414-19.735" stroke-width="1.2" stroke="#000" stroke-miterlimit="10" fill="none"/><path d="M61.133 185.168l9.93-7.473" stroke-width="1.2" stroke="#00f" stroke-miterlimit="10" fill="none"/><path d="M71.063 177.695l9.93-7.472M77.977 145.555l-22.872-9.727M55.105 135.828L35.25 150.773M56.637 141.996l-15.883 11.957M35.25 150.773l3.016 24.668M38.266 175.44l11.433 4.865" stroke-width="1.2" stroke="#000" stroke-miterlimit="10" fill="none"/><path d="M49.7 180.305l11.433 4.863" stroke-width="1.2" stroke="#00f" stroke-miterlimit="10" fill="none"/><path d="M42.84 171.035l9.148 3.887" stroke-width="1.2" stroke="#000" stroke-miterlimit="10" fill="none"/><path d="M51.988 174.922l9.15 3.89" stroke-width="1.2" stroke="#00f" stroke-miterlimit="10" fill="none"/><path d="M58.133 179.668h7v11h-7zm0 0" fill="#fff"/><use xlink:href="#a" x="58.133" y="188.331" fill="#00f"/><path d="M143.02 113.297h17v11h-17zm0 0" fill="#fff"/><g fill="#0c0"><use xlink:href="#c" x="143.02" y="121.96"/><use xlink:href="#d" x="149.533" y="121.96"/><use xlink:href="#b" x="152.125" y="121.96"/></g><path d="M143.02 96.73h17v11h-17zm0 0" fill="#fff"/><g fill="#0c0"><use xlink:href="#c" x="143.02" y="105.394"/><use xlink:href="#d" x="149.533" y="105.394"/><use xlink:href="#b" x="152.125" y="105.394"/></g><path d="M143.02 80.16h17v11h-17zm0 0" fill="#fff"/><g fill="#0c0"><use xlink:href="#c" x="143.02" y="88.823"/><use xlink:href="#d" x="149.533" y="88.823"/><use xlink:href="#b" x="152.125" y="88.823"/></g></g></svg>
